dist/uploads/catalog-sidebar-icons/1/i-catalog-14.svg

<svg width="38" height="38" viewBox="0 0 38 38" fill="none" xmlns="http://www.w3.org/2000/svg">
<g clip-path="url(#clip0)">
<path d="M3.95044 22.9182V36.2007H8.27969V38.0001H10.8415V36.2008H27.1586V38.0001H29.7205V36.2008H34.0496V22.9182H3.95044ZM13.6092 30.4344C12.8763 30.4344 12.2822 29.8404 12.2822 29.1076C12.2822 28.3749 12.8764 27.7807 13.6092 27.7807C14.342 27.7807 14.9362 28.3747 14.9362 29.1076C14.9362 29.8405 14.3421 30.4344 13.6092 30.4344ZM24.391 30.4344C23.658 30.4344 23.0639 29.8404 23.0639 29.1076C23.0639 28.3749 23.6581 27.7807 24.391 27.7807C25.1238 27.7807 25.718 28.3747 25.718 29.1076C25.718 29.8405 25.1239 30.4344 24.391 30.4344Z" fill="#FFC800"/>
<path d="M31.9019 4.15907H30.621C28.5018 4.15907 26.9611 3.22154 25.33 2.22901C23.6128 1.18423 21.6666 0 19 0C16.3334 0 14.3872 1.18423 12.6701 2.22909C11.0389 3.22161 9.49828 4.15914 7.37896 4.15914H6.09802V20.3564H31.9018V4.15907H31.9019ZM12.0734 10.3169L18.1494 4.24086L19.9609 6.05232L13.8849 12.1283L12.0734 10.3169ZM22.4994 5.85653L24.3109 7.66798L18.2349 13.744L16.4234 11.9325L22.4994 5.85653ZM19.8505 18.0938L18.039 16.2823L24.115 10.2063L25.9264 12.0178L19.8505 18.0938Z" fill="#FFC800"/>
</g>
<defs>
<clipPath id="clip0">
<rect width="38" height="38" fill="white"/>
</clipPath>
</defs>
</svg>

<svg width="38" height="38" fill="none" xmlns="http://www.w3.org/2000/svg"><g clip-path="url(#clip0)" fill="#FFC800"><path d="M3.95 22.918v13.283h4.33V38h2.562v-1.8h16.317V38h2.562v-1.8h4.329V22.918H3.95zm9.66 7.516a1.327 1.327 0 1 1-.001-2.653 1.327 1.327 0 0 1 0 2.653zm10.781 0a1.327 1.327 0 1 1 0-2.653 1.327 1.327 0 0 1 0 2.653zM31.902 4.16H30.62c-2.12 0-3.66-.938-5.291-1.931C23.613 1.184 21.667 0 19 0s-4.613 1.184-6.33 2.23c-1.631.992-3.172 1.93-5.291 1.93H6.098v16.196h25.804V4.16zm-19.829 6.157L18.15 4.24l1.812 1.811-6.076 6.076-1.812-1.811zM22.5 5.857l1.812 1.811-6.076 6.076-1.812-1.812L22.5 5.857zm-2.648 12.237l-1.812-1.812 6.076-6.076 1.811 1.812-6.075 6.076z"/></g><defs><clipPath id="clip0"><path fill="#fff" d="M0 0h38v38H0z"/></clipPath></defs></svg>
